X: 2
T: Trim The Velvet
R: reel
M: 4/4
L: 1/8
K: Fmaj
F3 A GFEC | FAcA BGEG | ~F3 A GFEG | cdec BGEG |FEFA G^FGB | ABcA BGEG | ~F3 A GFEG | cdec BGEG ||cfdf cf ~f2 | cdcA BGEG | cfdf cf ~f2 | cdec BGEG | c3 =B cAFA |cdcA BGEG | cfdf cf ~f2 | cdec BGEc ||: ~f3 g afge | f2 ga bgaf |af ~f2 efge |1 cdec BGEc :|2 cdec BGEG || AFcF AFFG |AFcA BGGB | AFcF AFFA | cdec BGEG | AFcF AFFG |AFcA BGGB | A3 F ~B3 G | cdec BGEC ||


Tune 1142	Setting 26902

